collateral/WSTETH.svg

<svg width="42" height="42" viewBox="0 0 42 42" fill="none" xmlns="http://www.w3.org/2000/svg">
<g clip-path="url(#clip0_9228_12431)">
<g clip-path="url(#clip1_9228_12431)">
<mask id="mask0_9228_12431" style="mask-type:luminance" maskUnits="userSpaceOnUse" x="0" y="0" width="42" height="42">
<path d="M42 21C42 9.40202 32.598 0 21 0C9.40202 0 0 9.40202 0 21C0 32.598 9.40202 42 21 42C32.598 42 42 32.598 42 21Z" fill="white"/>
</mask>
<g mask="url(#mask0_9228_12431)">
<path d="M42 21C42 9.40202 32.598 0 21 0C9.40202 0 0 9.40202 0 21C0 32.598 9.40202 42 21 42C32.598 42 42 32.598 42 21Z" fill="#00A3FF"/>
<path opacity="0.6" d="M28.7528 18.8704L28.9644 19.195C31.351 22.8561 30.818 27.6508 27.6829 30.7225C25.8386 32.5296 23.4214 33.4333 21.0042 33.4336C21.0042 33.4336 21.0042 33.4336 28.7528 18.8704Z" fill="white"/>
<path opacity="0.2" d="M21.0032 23.2966L28.7519 18.8704C21.0032 33.4336 21.0032 33.4336 21.0032 33.4336C21.0032 30.2618 21.0032 26.6274 21.0032 23.2966Z" fill="white"/>
<path d="M13.2473 18.8704L13.0356 19.195C10.6491 22.8561 11.1821 27.6508 14.3171 30.7225C16.1614 32.5296 18.5786 33.4333 20.9959 33.4336C20.9959 33.4336 20.9959 33.4336 13.2473 18.8704Z" fill="white"/>
<path opacity="0.6" d="M20.9935 23.2966L13.2449 18.8704C20.9936 33.4336 20.9935 33.4336 20.9935 33.4336C20.9935 30.2618 20.9935 26.6274 20.9935 23.2966Z" fill="white"/>
<path opacity="0.2" d="M21.0061 13.4088V21.0426L27.6807 17.2281L21.0061 13.4088Z" fill="white"/>
<path opacity="0.6" d="M21.0041 13.4088L14.3247 17.2281L21.0041 21.0426V13.4088Z" fill="white"/>
<path d="M21.0041 6.98869L14.3247 17.2304L21.0041 13.4004V6.98869Z" fill="white"/>
<path opacity="0.6" d="M21.0061 13.3994L27.6858 17.2295L21.0061 6.98266V13.3994Z" fill="white"/>
</g>
</g>
</g>
<defs>
<clipPath id="clip0_9228_12431">
<rect width="42" height="42" rx="21" fill="white"/>
</clipPath>
<clipPath id="clip1_9228_12431">
<rect width="42" height="42" fill="white"/>
</clipPath>
</defs>
</svg>

<svg width="42" height="42" fill="none" viewBox="0 0 42 42" xmlns="http://www.w3.org/2000/svg">
  <g clip-path="url(#a)">
    <g clip-path="url(#b)">
      <mask id="c" width="42" height="42" x="0" y="0" maskUnits="userSpaceOnUse" style="mask-type:luminance">
        <path fill="#fff" d="M42 21C42 9.402 32.598 0 21 0S0 9.402 0 21s9.402 21 21 21 21-9.402 21-21"/>
      </mask>
      <g mask="url(#c)">
        <path fill="#00A3FF" d="M42 21C42 9.402 32.598 0 21 0S0 9.402 0 21s9.402 21 21 21 21-9.402 21-21"/>
        <path fill="#fff" d="m28.753 18.87.211.325c2.387 3.661 1.854 8.456-1.281 11.528a9.52 9.52 0 0 1-6.679 2.71z" opacity=".6"/>
        <path fill="#fff" d="m21.003 23.297 7.749-4.427-7.749 14.564z" opacity=".2"/>
        <path fill="#fff" d="m13.247 18.87-.211.325c-2.387 3.661-1.854 8.456 1.281 11.528a9.52 9.52 0 0 0 6.679 2.71z"/>
        <path fill="#fff" d="m20.994 23.297-7.75-4.427 7.75 14.564z" opacity=".6"/>
        <path fill="#fff" d="M21.006 13.409v7.634l6.675-3.815z" opacity=".2"/>
        <path fill="#fff" d="m21.004 13.409-6.68 3.82 6.68 3.814z" opacity=".6"/>
        <path fill="#fff" d="m21.004 6.989-6.68 10.241 6.68-3.83z"/>
        <path fill="#fff" d="m21.006 13.4 6.68 3.83-6.68-10.247z" opacity=".6"/>
      </g>
    </g>
  </g>
  <defs>
    <clipPath id="a">
      <rect width="42" height="42" fill="#fff" rx="21"/>
    </clipPath>
    <clipPath id="b">
      <path fill="#fff" d="M0 0h42v42H0z"/>
    </clipPath>
  </defs>
</svg>
